storage/app/icons/phosphoricons/bold/chair-bold.svg

<svg xmlns="http://www.w3.org/2000/svg" fill="currentColor" viewBox="0 0 256 256"><path d="M208 128h-28v-20h12a20 20 0 0 0 20-20V40a20 20 0 0 0-20-20H64a20 20 0 0 0-20 20v48a20 20 0 0 0 20 20h12v20H48a20 20 0 0 0-20 20v24a20 20 0 0 0 20 20h8v32a12 12 0 0 0 24 0v-32h96v32a12 12 0 0 0 24 0v-32h8a20 20 0 0 0 20-20v-24a20 20 0 0 0-20-20M68 44h120v40H68Zm32 64h56v20h-56Zm104 60H52v-16h152Z"/></svg>

<svg xmlns="http://www.w3.org/2000/svg" viewBox="0 0 256 256" fill="currentColor"><path d="M208,128H180V108h12a20,20,0,0,0,20-20V40a20,20,0,0,0-20-20H64A20,20,0,0,0,44,40V88a20,20,0,0,0,20,20H76v20H48a20,20,0,0,0-20,20v24a20,20,0,0,0,20,20h8v32a12,12,0,0,0,24,0V192h96v32a12,12,0,0,0,24,0V192h8a20,20,0,0,0,20-20V148A20,20,0,0,0,208,128ZM68,44H188V84H68Zm32,64h56v20H100Zm104,60H52V152H204Z"/></svg>
